X: 9556
T: Dave MacNeil's
R: reel
M: 4/4
K: Dmajor
F2|ABAF A3F|ABAF ABde|fBBA B2 dA|B2 AF EDDF|
ABAF A3F|ABAF ABde|fBBA BcdB|1 AFEF D2:|2 AFEF D2 f2||
faaf a3 f|abag fdde|fBBA B2 dA|B2 AF EDDF|
faaf a3 f|abag fdde|fBBA BcdB|AFEF D2 f2|
aaf a3 f|abag fdde|fBBA B2 dA|B2 AF EDDF|
ABAF A3F|ABAF ABde|fBBA BcdB|AFEF D2||

